MB/img/icon/next_arrow.svg

<svg width="20" height="38" viewBox="0 0 20 38" fill="none" xmlns="http://www.w3.org/2000/svg">
<path d="M19.6915 18.1711L1.83089 0.586644C1.41036 0.172616 0.735928 0.172616 0.315398 0.586644C-0.105133 1.00067 -0.105133 1.66468 0.315398 2.0787L17.4143 18.9132L0.315398 35.7477C-0.105133 36.1617 -0.105133 36.8257 0.315398 37.2398C0.521696 37.4429 0.799405 37.5522 1.06918 37.5522C1.33895 37.5522 1.61666 37.4507 1.82296 37.2398L19.6836 19.6553C20.1041 19.2491 20.1041 18.5773 19.6915 18.1711Z" fill="white"/>
</svg>

<svg width="20" height="38" fill="none" xmlns="http://www.w3.org/2000/svg"><path d="M19.692 18.171L1.83.587a1.08 1.08 0 00-1.516 0 1.04 1.04 0 000 1.492l17.1 16.834-17.1 16.835a1.04 1.04 0 000 1.492c.207.203.484.312.754.312s.548-.101.754-.312l17.86-17.585a1.037 1.037 0 00.009-1.484z" fill="#fff"/></svg>
